kora/panel/16/nm-vpn-standalone-lock.svg

<svg clip-rule="evenodd" fill-rule="evenodd" stroke-linejoin="round" stroke-miterlimit="2" viewBox="0 0 16 16" xmlns="http://www.w3.org/2000/svg">
 <defs>
  <style id="current-color-scheme" type="text/css">
   .ColorScheme-Text { color:#dfdfdf; } .ColorScheme-Highlight { color:#4285f4; } .ColorScheme-NeutralText { color:#ff9800; } .ColorScheme-PositiveText { color:#4caf50; } .ColorScheme-NegativeText { color:#f44336; }
  </style>
 </defs> 
 <path style="opacity:0.3;fill:currentColor" class="ColorScheme-Text" d="m13.336 8.032c0-.169-.138-.305-.306-.305h-10.06c-.168 0-.305.136-.305.305v5.931c0 .169.137.305.305.305h10.06c.168 0 .306-.136.306-.305z"/>
 <path style="fill:currentColor" class="ColorScheme-Text" d="m8 1c-2.216 0-4 1.784-4 4v2h-1c-.554 0-1 .446-1 1v6c0 .554.446 1 1 1h10c.554 0 1-.446 1-1v-6c0-.554-.446-1-1-1h-1v-2c0-2.216-1.784-4-4-4zm5.335 7.032c0-.168-.137-.305-.305-.305h-10.06c-.168 0-.305.137-.305.305v5.931c0 .168.137.305.305.305h10.06c.168 0 .305-.137.305-.305zm-5.335-5.032c1.108 0 2 .892 2 2v2h-4v-2c0-1.108.892-2 2-2z"/>
</svg>

<svg xmlns="http://www.w3.org/2000/svg" width="16" height="16" version="1.1">
 <defs>
  <style id="current-color-scheme" type="text/css">
   .ColorScheme-Text { color:#dfdfdf; } .ColorScheme-Highlight { color:#4285f4; }
  </style>
 </defs>
 <path style="fill:currentColor" class="ColorScheme-Text" d="M 8,1 C 5.78,1 4,2.82 4,5.06 V 7 H 3 C 2.45,7 2,7.45 2,8 V 14 C 2,14.55 2.45,15 3,15 H 13 C 13.55,15 14,14.55 14,14 V 8 C 14,7.45 13.55,7 13,7 H 12 V 5.06 C 12,2.82 10.22,1 8,1 Z M 8,3 C 9.11,3 10,3.89 10,5 V 7 H 6 V 5 C 6,3.89 6.89,3 8,3 Z"/>
</svg>
